X: 4217
T: Blueberry Ball, The
R: waltz
M: 3/4
K: Cmajor
|:BA|G2 c2 c2|c2 e2 d2|c2 BB c2|d2 e2 ff|g2 e2 gg|f2 dd c2|B6|B2 A2 BA|
G2 c2 c<c-|c2 ee dB|c2 B2 c<d-|d2 e2 ff|g2 e2 gg|f2 d2 BB|c6-|1 c4:|2 c2||
|:ee ff|g2 e2 ff|g2 a2 g2|f2 d2 de|f2 g2 f2|e2 c2 c <c-|c2 d2 c2|B4 BB|B2 A2 BA|
G2 c2 c2|c2 ee dB|c2 B2 c2|dd e2 ff|g2 e2 gg|f2 d2 BB|c6-|1 c2:|2 c2- cc||

